X: 16
T: the Road to Lisdoonvarna
O: trad Ireland
R: jig
Z: 1997 by John Chambers <jc:trillian.mit.edu>
D: Chieftains 3; Swallowtail "Flights of Fancy"
D: Grey Larsen and Malcolm Dalglish "Banish Misfortune".
O: trad Ireland
M: 6/8
L: 1/8
K: EDor
|:\
"Em"E2B B2A | "(Bm)"B2c d2D/E/ | "D"F2A ABA | D2E FED |\
"Em"E2B B2A | "(Bm)"B2c d3 | "A"cdc B2A | "Em"B2E E3 :|
|:\
"Em"e2f gfe | "Bm"d2B Bcd | "A"c2A ABc | "Bm"d2B [BB3]cd |\
"Em"e2f gfe | "Bm"d2B Bcd | "A"cdc B2A | "Em"B2E E3 :|

%%sep 1 1 500

